X:1
T:Partition sans titre
C:Compositeur / Arrangeur
L:1/8
M:4/4
I:linebreak $
K:D
V:1 treble nm="Violon" snm="Vln."
V:1
"Em" ABeB gBeB | ABeB gBeB |"D" ddfd gdfd | Adfd gdfd |"Em" ABeB gBeB | ABeB gBeB | %6
"D" f2 fg fedc |1 Bc d2"Em" e2 B2 :|2 Bc d2"Em" e2 ef |:"Em" gefd ecdB |"D" ABAF D2 FD | %11
"Em" EFGA B2 ef | gfed"D" A2 ef |"Em" gefd ecdB |"D" ABAF D2 FD |"Em" EFGA B2 AG |1 %16
"D" FAGF"Em" E2 ef :|2"D" FAGF"Em" E2 B2 |] %18
